www/assets/icons/pending_actions.svg

<svg xmlns="http://www.w3.org/2000/svg" width="24" height="24" viewBox="0 0 24 24" fill='currentColor'><path d="M16 12.5c-2.76 0-5 2.24-5 5s2.24 5 5 5 5-2.24 5-5-2.24-5-5-5m1.65 7.35L15.5 17.7v-3.2h1v2.79l1.85 1.85zM17 3.5h-3.18c-.42-1.16-1.52-2-2.82-2s-2.4.84-2.82 2H5c-1.1 0-2 .9-2 2v15c0 1.1.9 2 2 2h6.11a6.7 6.7 0 0 1-1.42-2H5v-15h2v3h8v-3h2v5.08c.71.1 1.38.31 2 .6V5.5c0-1.1-.9-2-2-2m-6 2c-.55 0-1-.45-1-1s.45-1 1-1 1 .45 1 1-.45 1-1 1"/></svg>

<svg width="24" height="24" viewBox="0 0 24 24" xmlns="http://www.w3.org/2000/svg" fill='currentColor'><path d="M16 12.5C13.24 12.5 11 14.74 11 17.5C11 20.26 13.24 22.5 16 22.5C18.76 22.5 21 20.26 21 17.5C21 14.74 18.76 12.5 16 12.5ZM17.65 19.85L15.5 17.7V14.5H16.5V17.29L18.35 19.14L17.65 19.85ZM17 3.5H13.82C13.4 2.34 12.3 1.5 11 1.5C9.7 1.5 8.6 2.34 8.18 3.5H5C3.9 3.5 3 4.4 3 5.5V20.5C3 21.6 3.9 22.5 5 22.5H11.11C10.52 21.93 10.04 21.25 9.69 20.5H5V5.5H7V8.5H15V5.5H17V10.58C17.71 10.68 18.38 10.89 19 11.18V5.5C19 4.4 18.1 3.5 17 3.5ZM11 5.5C10.45 5.5 10 5.05 10 4.5C10 3.95 10.45 3.5 11 3.5C11.55 3.5 12 3.95 12 4.5C12 5.05 11.55 5.5 11 5.5Z"/></svg>
